svgs/thin/brightness.svg

<svg xmlns="http://www.w3.org/2000/svg" viewBox="0 0 512 512"><!--! Font Awesome Pro 6.0.0-alpha3 by @fontawesome - https://fontawesome.com License - https://fontawesome.com/license (Commercial License) --><path d="M256 160C202.1 160 160 202.1 160 256c0 53.02 42.98 96 96 96s96-42.98 96-96C352 202.1 309 160 256 160zM256 336c-44.11 0-80-35.89-80-80c0-44.11 35.89-80 80-80s80 35.89 80 80C336 300.1 300.1 336 256 336zM504 248h-96c-4.406 0-8 3.578-8 8s3.594 8 8 8h96C508.4 264 512 260.4 512 256S508.4 248 504 248zM112 256c0-4.422-3.594-8-8-8h-96C3.594 248 0 251.6 0 256s3.594 8 8 8h96C108.4 264 112 260.4 112 256zM256 400c-4.406 0-8 3.578-8 8v96C248 508.4 251.6 512 256 512s8-3.578 8-8v-96C264 403.6 260.4 400 256 400zM256 112c4.406 0 8-3.578 8-8v-96C264 3.578 260.4 0 256 0S248 3.578 248 8v96C248 108.4 251.6 112 256 112zM369.1 357.8c-3.156-3.156-8.212-3.097-11.31-.0035c-3.125 3.125-3.132 8.191-.007 11.32l67.91 67.88c1.562 1.562 3.625 2.344 5.656 2.344c2.062 0 4.087-.7789 5.649-2.341c3.125-3.125 3.132-8.19 .007-11.31L369.1 357.8zM86.28 74.98C83.13 71.83 78.07 71.89 74.98 74.98C71.85 78.11 71.84 83.17 74.97 86.3l67.91 67.88C144.4 155.7 146.5 156.5 148.5 156.5c2.062 0 4.087-.7789 5.649-2.341c3.125-3.125 3.132-8.19 .007-11.31L86.28 74.98zM142.9 357.8l-67.91 67.88c-3.125 3.125-3.118 8.19 .007 11.31c1.562 1.562 3.587 2.341 5.649 2.341c2.031 0 4.094-.7813 5.656-2.344l67.91-67.88c3.125-3.125 3.118-8.191-.007-11.32C151.1 354.7 146 354.7 142.9 357.8zM363.5 156.5c2.031 0 4.094-.7813 5.656-2.344l67.91-67.88c3.125-3.125 3.118-8.19-.007-11.31c-3.094-3.094-8.149-3.154-11.31 .0023l-67.91 67.88c-3.125 3.125-3.118 8.19 .007 11.31C359.4 155.7 361.4 156.5 363.5 156.5z"/></svg>

<svg xmlns="http://www.w3.org/2000/svg" viewBox="0 0 512 512"><!--! Font Awesome Pro 6.4.2 by @fontawesome - https://fontawesome.com License - https://fontawesome.com/license (Commercial License) Copyright 2023 Fonticons, Inc. --><path d="M248 104c0 4.4 3.6 8 8 8s8-3.6 8-8V8c0-4.4-3.6-8-8-8s-8 3.6-8 8v96zm8 72a80 80 0 1 1 0 160 80 80 0 1 1 0-160zm0 176a96 96 0 1 0 0-192 96 96 0 1 0 0 192zm0 160c4.4 0 8-3.6 8-8V408c0-4.4-3.6-8-8-8s-8 3.6-8 8v96c0 4.4 3.6 8 8 8zM0 256c0 4.4 3.6 8 8 8h96c4.4 0 8-3.6 8-8s-3.6-8-8-8H8c-4.4 0-8 3.6-8 8zm408-8c-4.4 0-8 3.6-8 8s3.6 8 8 8h96c4.4 0 8-3.6 8-8s-3.6-8-8-8H408zM75 437c3.1 3.1 8.2 3.1 11.3 0l67.9-67.9c3.1-3.1 3.1-8.2 0-11.3s-8.2-3.1-11.3 0L75 425.7c-3.1 3.1-3.1 8.2 0 11.3zM357.8 142.9c-3.1 3.1-3.1 8.2 0 11.3s8.2 3.1 11.3 0L437 86.3c3.1-3.1 3.1-8.2 0-11.3s-8.2-3.1-11.3 0l-67.9 67.9zM75 75c-3.1 3.1-3.1 8.2 0 11.3l67.9 67.9c3.1 3.1 8.2 3.1 11.3 0s3.1-8.2 0-11.3L86.3 75c-3.1-3.1-8.2-3.1-11.3 0zM369.1 357.8c-3.1-3.1-8.2-3.1-11.3 0s-3.1 8.2 0 11.3L425.7 437c3.1 3.1 8.2 3.1 11.3 0s3.1-8.2 0-11.3l-67.9-67.9z"/></svg>
